X:1
T: The Duchess of Buccleuch
C:
R:Strathspey
Q: 128
K:Bb
M:4/4
L:1/16
|:DE|F3G GFED FD3 D3B|F3G B3D F6G2|F3G GFED FD3 d3c|B3G F3D C4 C2DE|
F3G GFED FD3 D3B|F3G B3D F6de|f3d e3c d3B c3A|B3G FD3 C6g2|
fd3 d3g fd3 d3g|f3d b3d f6g2|fd3 d3g f3d dfga|b3g f3d dc3 c3g|
fd3 d3g fd3 d3g|gfed b2d2 f4f2|gaba gfgf eded cBdc|BAcB AGGF ED C6:|
